X:207
T:Mill Street Hornpipe
T:Pibddawns Hewl-y-Felin
T:Mill Road Hornpipe, The
M:C|
L:1/8
Q:140
S:Cadw Twmpath Collection
R:Hornpipe
A:Wales
Z:brian_martin12345@yahoo.com
K:D
(3ABc|d2AF D2FG|A2Bc d2ef|g2f2 e2d2|edcB Agfe|
d2AF DEFG|A2Bc d2ef|g2f2 e2d2|dAfe d2:||
fg|a2fd Adfa|g2ec Aceg|f2dA FAdf|edcB A2(3ABc|
d2AF DEFG|A2Bc d2ef|gffe eddc|dAfe d2:||

